packages/tokens/icons/refresh/size32Px.svg

<svg viewBox="0 0 32 32" fill="none" xmlns="http://www.w3.org/2000/svg" width="1em" height="1em"><path d="M29 16.0001C29.0001 15.724 28.7763 15.5001 28.5001 15.5C28.224 15.4999 28.0001 15.7237 28 15.9999L29 16.0001ZM8.77972 5.18949L8.50202 4.7737L8.77972 5.18949ZM26.5 8.5V9C26.6335 9 26.7615 8.9466 26.8554 8.8517C26.9493 8.75679 27.0014 8.62827 27 8.49476L26.5 8.5ZM26.9528 3.99476C26.95 3.71864 26.7238 3.49714 26.4476 3.50003C26.1715 3.50292 25.95 3.72911 25.9529 4.00524L26.9528 3.99476ZM22 8C21.7239 8 21.5 8.22386 21.5 8.5C21.5 8.77614 21.7239 9 22 9V8ZM16 29L16 29.5L16 29ZM16 3L16 2.5L16 3ZM3 16L2.5 16L3 16ZM27 8.49476L26.9528 3.99476L25.9529 4.00524L26 8.50524L27 8.49476ZM26.5 8H22V9H26.5V8ZM9.05742 5.60528C11.1201 4.22763 13.5378 3.49997 16 3.5L16 2.5C13.3408 2.49996 10.7297 3.28583 8.50202 4.7737L9.05742 5.60528ZM16 3.5C19.8562 3.50005 23.9144 5.59792 26.087 8.78183L26.913 8.21817C24.5497 4.75485 20.1789 2.50006 16 2.5L16 3.5ZM3.5 16C3.49996 11.8723 5.61733 7.90289 9.05742 5.60528L8.50202 4.7737C4.78381 7.25706 2.49996 11.5386 2.5 16L3.5 16ZM16 28.5C9.25302 28.4999 3.50007 22.8056 3.5 16L2.5 16C2.50007 23.361 8.7038 29.4999 16 29.5L16 28.5ZM28 15.9999C27.9983 22.8615 22.88 28.5001 16 28.5L16 29.5C23.4868 29.5001 28.9981 23.3576 29 16.0001L28 15.9999Z" fill="currentColor"/></svg>

<svg xmlns="http://www.w3.org/2000/svg" fill="none" viewBox="0 0 32 32" width="1em" height="1em"><path fill="currentColor" d="M29 16a.5.5 0 1 0-1 0h1ZM8.78 5.19l-.278-.416.278.415ZM26.5 8.5V9a.5.5 0 0 0 .5-.505l-.5.005Zm.453-4.505a.5.5 0 1 0-1 .01l1-.01ZM22 8a.5.5 0 0 0 0 1V8Zm-6 21v.5-.5Zm0-26v-.5.5ZM3 16h-.5.5Zm24-7.505-.047-4.5-1 .01.047 4.5 1-.01ZM26.5 8H22v1h4.5V8ZM9.057 5.605A12.5 12.5 0 0 1 16 3.5v-1a13.5 13.5 0 0 0-7.498 2.274l.555.831ZM16 3.5c3.856 0 7.914 2.098 10.087 5.282l.826-.564C24.55 4.755 20.179 2.5 16 2.5v1ZM3.5 16c0-4.128 2.117-8.097 5.557-10.395l-.555-.831C4.784 7.257 2.5 11.539 2.5 16h1ZM16 28.5C9.253 28.5 3.5 22.806 3.5 16h-1c0 7.361 6.204 13.5 13.5 13.5v-1ZM28 16c-.002 6.861-5.12 12.5-12 12.5v1c7.487 0 12.998-6.142 13-13.5h-1Z"/></svg>
